app/dist/common/images/cpi-property-grp-eo-10.svg

<svg height="18" viewBox="0 0 18 18" width="18" xmlns="http://www.w3.org/2000/svg"><path d="m0 0h18v18h-18z" fill="#003d56"/><path d="m7.92 10a3.05 3.05 0 0 1 -2.87 2 3.02 3.02 0 0 1 -3.05-3c0-1.66 1.36-3 3.05-3 1.33 0 2.45.83 2.87 2h-1.8a1.5 1.5 0 0 0 -2.62 1 1.5 1.5 0 0 0 2.62 1zm2.08-2h-1.5v4h1.5v-1.5h1.51c1.1 0 1.99-1.02 1.99-2.25s-.89-2.25-1.99-2.25h-3.01v1.5h2.82c.38 0 .68.32.68.75s-.3.75-.68.75h-1.32zm5.5-2h-1.5v6h1.5z" fill="#fff"/></svg>

<!-- by TradingView --><svg width="18" height="18" viewBox="0 0 18 18" xmlns="http://www.w3.org/2000/svg"><path fill="#003D56" d="M0 0h18v18H0z"/><path d="M7.92 10a3.05 3.05 0 0 1-2.87 2A3.02 3.02 0 0 1 2 9c0-1.66 1.36-3 3.05-3 1.33 0 2.45.83 2.87 2h-1.8A1.5 1.5 0 0 0 3.5 9a1.5 1.5 0 0 0 2.62 1h1.8ZM10 8H8.5v4H10v-1.5h1.51c1.1 0 1.99-1.02 1.99-2.25S12.61 6 11.51 6H8.5v1.5h2.82c.38 0 .68.32.68.75s-.3.75-.68.75H10V8Zm5.5-2H14v6h1.5V6Z" fill="#fff"/></svg>
